dist/img/header/logo-min.svg

<svg width="47" height="26" viewBox="0 0 47 26" fill="none" xmlns="http://www.w3.org/2000/svg">
<path d="M30.2483 7.76387L31.741 2.6062H34.0568L30.8088 12.1858L30.6294 12.6226C30.1457 13.7067 29.3482 14.2489 28.2399 14.2489C27.926 14.2489 27.6058 14.1995 27.2823 14.1042V12.4256L27.6121 12.4322C28.0221 12.4322 28.3264 12.3696 28.5283 12.2416C28.73 12.1135 28.887 11.9031 29.0022 11.6042L29.2553 10.921L26.4238 2.6062H28.7461L30.2483 7.76387Z" fill="#FF8A00"/>
<path d="M9.69824 6.99291C9.69824 7.836 9.85616 8.59137 10.1751 9.25241C10.4907 9.91346 10.9478 10.426 11.5429 10.7868C12.1381 11.1477 12.8286 11.3299 13.6178 11.3299C14.739 11.3299 15.6532 10.9791 16.3601 10.2743C17.0671 9.57273 17.4649 8.61836 17.5439 7.411L17.5602 6.82765C17.5602 5.52251 17.2051 4.47366 16.4949 3.68439C15.7846 2.89528 14.8311 2.50073 13.6342 2.50073C12.4373 2.50073 11.4838 2.89528 10.7703 3.6811C10.0568 4.46691 9.70161 5.5393 9.70161 6.89168V6.99291H9.69824ZM11.9178 6.82765C11.9178 6.02159 12.0658 5.40103 12.3617 4.97619C12.6576 4.5479 13.0818 4.3354 13.6342 4.3354C14.1702 4.3354 14.591 4.5479 14.8936 4.96945C15.1961 5.39099 15.3474 6.06537 15.3474 6.9962C15.3474 7.78876 15.1961 8.40257 14.8936 8.83761C14.591 9.2692 14.1669 9.48845 13.6178 9.48845C13.0752 9.48845 12.6576 9.27266 12.3585 8.83761C12.0658 8.40586 11.9178 7.73478 11.9178 6.82765Z" fill="#FF8A00"/>
<path d="M25.7211 11.3661H23.4396V8.61718C23.0138 8.69685 22.6184 8.73849 22.2499 8.73849C20.9623 8.73849 19.9922 8.45768 19.3399 7.89622C18.6875 7.33459 18.3563 6.51652 18.3462 5.43836V2.61674H20.6243V5.43836C20.6311 5.94452 20.7493 6.30846 20.9859 6.52689C21.2258 6.74531 21.645 6.8528 22.2499 6.8528C22.6285 6.8528 23.0239 6.8077 23.4396 6.71404V2.61328H25.7177V11.3661H25.7211Z" fill="#FF8A00"/>
<path d="M4.58272 3.75197L6.57276 0H9.08744L5.9979 5.39569L9.16864 10.8809H6.62267L4.58272 7.07135L2.54276 10.8842H0L3.17075 5.39569L0.0812076 0H2.59588L4.58272 3.75197Z" fill="#FF8A00"/>
<path d="M38.5703 11.2571V2.4314H42.1636C43.3365 2.4314 44.2331 2.64472 44.8603 3.06775C45.4877 3.49095 45.7979 4.09932 45.7979 4.89303C45.7979 5.30224 45.665 5.66584 45.4058 5.9911C45.1399 6.31619 44.7581 6.56458 44.2535 6.73939C44.8672 6.85823 45.3513 7.09592 45.7059 7.4457C46.0605 7.79531 46.2343 8.22888 46.2343 8.73948C46.2343 9.56118 45.9343 10.187 45.3309 10.6171C44.7308 11.0472 43.8547 11.2605 42.7091 11.2605H38.5703V11.2571ZM40.8682 7.59598V9.37238H42.7194C43.5307 9.37238 43.9364 9.08218 43.9364 8.49817C43.9364 7.90724 43.5512 7.60651 42.7774 7.59598H40.8682ZM40.8682 6.01201H42.2932C43.0978 6.00147 43.5036 5.7358 43.5036 5.21121C43.5036 4.88958 43.3944 4.66226 43.1728 4.52597C42.9512 4.39313 42.6137 4.32318 42.1636 4.32318H40.8682V6.01201Z" fill="#FF8A00"/>
<path d="M15.5696 16.3172H10.8323V18.4261H12.5385C13.7884 18.4261 14.7758 18.7369 15.5072 19.3555C16.2384 19.9773 16.604 20.8105 16.604 21.865C16.604 22.9226 16.2414 23.7688 15.5133 24.4098C14.7884 25.0507 13.8229 25.3745 12.6166 25.384H8.62305V14.5H15.5696V16.3172ZM10.8323 20.2336V23.583H12.576C13.1353 23.583 13.5791 23.4258 13.9134 23.1117C14.2478 22.7976 14.4135 22.3777 14.4135 21.849C14.4135 21.3554 14.2541 20.9645 13.9354 20.6792C13.6166 20.3939 13.1791 20.2433 12.6259 20.2336H10.8323Z" fill="#FF8A00"/>
<path d="M33.4068 16.709H31.1011V20.1021H28.243V16.709H25.9443V25.5381H28.243V21.9982H31.0977V25.5381H33.4068V16.709Z" fill="#FF8A00"/>
<path d="M22.5958 25.3523C22.4937 25.1467 22.4181 24.8937 22.3721 24.5902C21.8362 25.204 21.139 25.5108 20.2775 25.5108C19.4653 25.5108 18.7913 25.2715 18.2554 24.7857C17.7194 24.3034 17.4531 23.6931 17.4531 22.9613C17.4531 22.0574 17.7786 21.3661 18.4297 20.8838C19.0872 20.4015 20.0277 20.1587 21.2607 20.152H22.2801V19.6629C22.2801 19.2684 22.1814 18.9548 21.9842 18.7188C21.7868 18.4826 21.4777 18.3645 21.0535 18.3645C20.6788 18.3645 20.386 18.4556 20.1756 18.6411C19.9652 18.8233 19.8567 19.0761 19.8567 19.3966H17.6404C17.6404 18.9041 17.7884 18.4455 18.0843 18.0273C18.3803 17.6092 18.8012 17.2787 19.3437 17.0392C19.8863 16.7998 20.4945 16.6816 21.1686 16.6816C22.1912 16.6816 23.0034 16.9448 23.6051 17.4742C24.2069 18.0003 24.5061 18.7423 24.5061 19.6967V23.3863C24.5127 24.1922 24.6212 24.806 24.8349 25.2175V25.3523H22.5958ZM20.7609 23.7706C21.0864 23.7706 21.3889 23.6965 21.6651 23.5481C21.9413 23.3998 22.1453 23.1973 22.2801 22.9478V21.4808H21.4515C20.3433 21.4808 19.7515 21.8754 19.6791 22.6612L19.6725 22.796C19.6725 23.0793 19.7712 23.312 19.9652 23.4975C20.1593 23.6796 20.4255 23.7706 20.7609 23.7706Z" fill="#FF8A00"/>
<path d="M37.11 22.0709H38.3069C38.4712 23.1297 38.8922 23.9661 39.576 24.5766C40.26 25.187 41.1182 25.4939 42.1573 25.4939C43.2785 25.4939 44.1926 25.1432 44.8996 24.4383C45.6065 23.7368 46.0044 22.7824 46.0833 21.5751L46.0997 20.9915C46.0997 19.6864 45.7447 18.6376 45.0344 17.8485C44.3242 17.0593 43.3706 16.6648 42.1737 16.6648C41.0952 16.6648 40.2108 16.9851 39.5234 17.6259C38.8362 18.2667 38.422 19.1333 38.2838 20.2294H37.11V16.8233H34.8872V25.3354H37.11V22.0709ZM40.4541 20.9915C40.4541 20.1857 40.602 19.5651 40.898 19.1401C41.1939 18.7118 41.6181 18.4993 42.1705 18.4993C42.7163 18.4993 43.1405 18.7118 43.4364 19.1368C43.7323 19.5616 43.8803 20.2362 43.8803 21.1603C43.8803 21.9528 43.729 22.5665 43.4265 23.0015C43.1239 23.4366 42.6998 23.6558 42.1539 23.6558C41.6115 23.6558 41.1939 23.44 40.8946 23.005C40.602 22.5699 40.4541 21.8988 40.4541 20.9915Z" fill="#FF8A00"/>
</svg>

<svg width="47" height="26" viewBox="0 0 47 26" fill="none" xmlns="http://www.w3.org/2000/svg"><path d="M30.248 7.764l1.493-5.158h2.316l-3.248 9.58-.18.437c-.483 1.084-1.28 1.626-2.39 1.626a3.4 3.4 0 01-.957-.145v-1.678l.33.006c.41 0 .714-.062.916-.19.202-.129.359-.339.474-.638l.253-.683-2.831-8.315h2.322l1.502 5.158zm-20.55-.771c0 .843.158 1.598.477 2.26a3.524 3.524 0 001.368 1.534c.595.36 1.286.543 2.075.543 1.121 0 2.035-.35 2.742-1.056.707-.701 1.105-1.656 1.184-2.863l.016-.583c0-1.305-.355-2.354-1.065-3.144-.71-.789-1.664-1.183-2.86-1.183-1.198 0-2.151.394-2.865 1.18-.713.786-1.068 1.858-1.068 3.21v.102h-.004zm2.22-.165c0-.806.148-1.427.444-1.852.296-.428.72-.64 1.272-.64.536 0 .957.212 1.26.633.302.422.453 1.096.453 2.027 0 .793-.15 1.407-.453 1.842-.303.431-.727.65-1.276.65-.543 0-.96-.215-1.26-.65-.292-.432-.44-1.103-.44-2.01zm13.803 4.538H23.44V8.617c-.426.08-.822.121-1.19.121-1.288 0-2.258-.28-2.91-.842-.652-.561-.984-1.38-.994-2.458V2.617h2.278v2.821c.007.507.125.87.362 1.089.24.218.659.326 1.264.326a5.39 5.39 0 001.19-.139v-4.1h2.278v8.752h.003zM4.583 3.752L6.573 0h2.514l-3.09 5.396L9.17 10.88H6.623l-2.04-3.81-2.04 3.813H0l3.17-5.488L.082 0h2.515l1.987 3.752zm33.987 7.505V2.431h3.594c1.172 0 2.07.214 2.696.637.628.423.938 1.031.938 1.825 0 .41-.133.773-.392 1.098-.266.325-.648.574-1.152.748.613.12 1.097.357 1.452.707.354.35.528.783.528 1.293 0 .822-.3 1.448-.903 1.878-.6.43-1.476.643-2.622.643H38.57v-.003zm2.298-3.661v1.776h1.851c.812 0 1.217-.29 1.217-.874 0-.59-.385-.891-1.159-.902h-1.909zm0-1.584h1.425c.805-.01 1.21-.276 1.21-.8 0-.322-.109-.55-.33-.686-.222-.133-.56-.203-1.01-.203h-1.295v1.689zM15.57 16.317h-4.738v2.11h1.707c1.25 0 2.237.31 2.968.928.731.622 1.097 1.456 1.097 2.51 0 1.058-.363 1.904-1.09 2.545-.726.64-1.691.965-2.897.974H8.623V14.5h6.947v1.817zm-4.738 3.917v3.349h1.744c.56 0 1.003-.157 1.337-.471.335-.314.5-.734.5-1.263 0-.494-.159-.884-.478-1.17-.318-.285-.756-.436-1.31-.445h-1.793zm22.575-3.525H31.1v3.393h-2.858V16.71h-2.299v8.83h2.299V22h2.855v3.54h2.309v-8.83zm-10.811 8.643a2.585 2.585 0 01-.224-.762c-.536.614-1.233.92-2.095.92-.812 0-1.486-.239-2.022-.724-.536-.483-.802-1.093-.802-1.825 0-.904.326-1.595.977-2.077.657-.483 1.598-.725 2.83-.732h1.02v-.49c0-.394-.099-.707-.296-.943-.197-.236-.506-.355-.93-.355-.375 0-.668.092-.878.277-.21.182-.32.435-.32.756H17.64c0-.493.148-.951.444-1.37.296-.418.717-.748 1.26-.988.542-.24 1.15-.357 1.825-.357 1.022 0 1.834.263 2.436.792.602.526.901 1.268.901 2.223v3.69c.007.805.115 1.419.329 1.83v.135h-2.24zm-1.835-1.581c.325 0 .628-.075.904-.223.276-.148.48-.35.615-.6V21.48h-.829c-1.108 0-1.7.394-1.772 1.18l-.006.135a.93.93 0 00.292.701c.194.183.46.274.796.274zM37.11 22.07h1.197c.164 1.06.585 1.896 1.269 2.507.684.61 1.542.917 2.581.917 1.122 0 2.036-.35 2.743-1.056.706-.701 1.104-1.656 1.183-2.863l.017-.584c0-1.305-.355-2.353-1.066-3.142-.71-.79-1.663-1.184-2.86-1.184-1.079 0-1.963.32-2.65.96-.688.642-1.102 1.508-1.24 2.604H37.11v-3.406h-2.223v8.512h2.223v-3.264zm3.344-1.079c0-.805.148-1.426.444-1.85.296-.43.72-.642 1.272-.642.546 0 .97.213 1.266.638.296.425.444 1.1.444 2.023 0 .793-.151 1.407-.454 1.841-.302.436-.726.655-1.272.655-.543 0-.96-.216-1.26-.651-.292-.435-.44-1.106-.44-2.014z" fill="#FF8A00"/></svg>
